img/icon-watsapp.svg

<svg width="13" height="13" viewBox="0 0 13 13" fill="none" xmlns="http://www.w3.org/2000/svg">
<g clip-path="url(#clip0_96_2200)">
<path d="M10.6444 3.16055C10.1579 2.67182 9.57866 2.28436 8.9403 2.02073C8.30194 1.75711 7.61725 1.62259 6.92614 1.62503C4.03021 1.62503 1.67009 3.97386 1.66744 6.85741C1.66744 7.78097 1.91015 8.67944 2.36838 9.47493L1.625 12.1875L4.41284 11.46C5.18408 11.8778 6.0481 12.0968 6.92614 12.0971H6.9288C9.82539 12.0971 12.1848 9.74823 12.1875 6.86204C12.1882 6.17418 12.0521 5.493 11.7871 4.85773C11.5222 4.22246 11.1336 3.64565 10.6437 3.16055H10.6444ZM6.92614 11.2111C6.14297 11.2114 5.3742 11.0016 4.70064 10.6038L4.54149 10.5087L2.88762 10.9405L3.32927 9.33431L3.22582 9.16861C2.78802 8.47567 2.55648 7.67338 2.55804 6.85477C2.55804 4.46106 4.51894 2.50832 6.9288 2.50832C7.5029 2.50729 8.07154 2.61941 8.60191 2.83819C9.13229 3.05698 9.61392 3.37811 10.019 3.78308C10.4256 4.18646 10.7478 4.66598 10.9673 5.19398C11.1867 5.72197 11.299 6.288 11.2976 6.8594C11.2949 9.2617 9.334 11.2111 6.92614 11.2111ZM9.32339 7.95393C9.19276 7.88858 8.54752 7.57236 8.42617 7.52747C8.30547 7.48456 8.21728 7.46212 8.13107 7.59283C8.04287 7.72288 7.79088 8.01929 7.71528 8.10445C7.63968 8.19225 7.56143 8.20215 7.43013 8.13745C7.29949 8.07144 6.87574 7.93413 6.37441 7.4872C5.98316 7.14062 5.72122 6.71152 5.64297 6.58147C5.56737 6.45076 5.63567 6.38078 5.70132 6.31543C5.75902 6.25733 5.83196 6.16227 5.89761 6.08701C5.96393 6.01176 5.98581 5.9563 6.02891 5.86916C6.07202 5.7807 6.05146 5.70545 6.01897 5.64009C5.98581 5.57473 5.72387 4.92976 5.61313 4.66966C5.50702 4.41286 5.39893 4.44851 5.31803 4.44521C5.24243 4.44059 5.15423 4.44059 5.06603 4.44059C4.99943 4.44224 4.93389 4.45757 4.87352 4.48563C4.81315 4.51369 4.75926 4.55387 4.71523 4.60365C4.59454 4.73436 4.257 5.05057 4.257 5.69554C4.257 6.34051 4.72783 6.9604 4.79415 7.0482C4.85913 7.136 5.71856 8.45565 7.03755 9.02338C7.34923 9.15871 7.59459 9.23859 7.78624 9.29933C8.10123 9.39967 8.38571 9.38449 8.61251 9.35214C8.8645 9.31385 9.38905 9.03526 9.49979 8.72961C9.60854 8.4233 9.60854 8.16188 9.57539 8.10709C9.54289 8.05163 9.4547 8.01929 9.32339 7.95393Z" fill="white"/>
</g>
<defs>
<clipPath id="clip0_96_2200">
<rect width="13" height="13" fill="white"/>
</clipPath>
</defs>
</svg>

<svg width="13" height="13" fill="none" xmlns="http://www.w3.org/2000/svg"><g clip-path="url(#a)"><path d="M10.644 3.16a5.21 5.21 0 0 0-3.718-1.535c-2.896 0-5.256 2.349-5.259 5.232 0 .924.243 1.822.701 2.618l-.743 2.713 2.788-.728a5.28 5.28 0 0 0 2.513.637h.003c2.896 0 5.256-2.349 5.258-5.235a5.192 5.192 0 0 0-1.543-3.701Zm-3.718 8.051c-.783 0-1.552-.21-2.225-.607l-.16-.095-1.653.431.441-1.606-.103-.165a4.316 4.316 0 0 1-.668-2.314c0-2.394 1.96-4.347 4.37-4.347a4.367 4.367 0 0 1 4.04 2.686c.219.528.331 1.094.33 1.665-.003 2.403-1.964 4.352-4.372 4.352Zm2.397-3.257c-.13-.065-.775-.382-.897-.427-.12-.042-.209-.065-.295.066-.088.13-.34.426-.416.511-.075.088-.154.098-.285.033-.13-.066-.554-.203-1.056-.65a3.994 3.994 0 0 1-.731-.906c-.076-.13-.007-.2.058-.266.058-.058.131-.153.197-.228.066-.075.088-.13.13-.218.044-.088.023-.164-.009-.229-.033-.065-.295-.71-.406-.97-.106-.257-.214-.221-.295-.225-.076-.004-.164-.004-.252-.004a.485.485 0 0 0-.35.163c-.121.13-.459.447-.459 1.092s.47 1.264.537 1.352c.065.088.925 1.408 2.244 1.975.311.136.557.216.748.276.315.1.6.085.827.053.252-.038.776-.317.887-.622.109-.307.109-.568.075-.623-.032-.055-.12-.088-.252-.153Z" fill="#fff"/></g><defs><clipPath id="a"><path fill="#fff" d="M0 0h13v13H0z"/></clipPath></defs></svg>
